X:1
T:Title
%%score ( 1 2 ) { 3 | 4 }
L:1/8
Q:1/4=135
M:3/4
K:F
V:1 treble nm="Grand Piano, Staff"
V:2 treble 
V:3 treble nm="Choir Pad, Quem Pastores, 88.87"
V:4 bass 
V:1
 [CF]4 [FA]2 | [Gc]4 [FA]2 | B2 z2 z2 | [Fc]4 [EG]2 | A2 z2 z2 | B2 z2 z2 | [DF]4 [=B,D]2 | %7
w: By~Melody~from~Hohenfurth~Manuscript,~1410 *|||||||
 [CE]4 C2 | [CA]4 [FB]2 | [Ec]4 [Fd]2 | [Fc]4 [DG]2 | [EA]4 [DF]2 | [DB]4 [GB]2 | A2 z2 z2 | %14
w: |||||||
 [DF]2 D2 [CE]2 | [CF]6- | [CF]2 z2 z2 |] %17
w: |||
V:2
 x6 | x6 | F2- [Fc]2 [Fd]2 | x6 | F2- [FB]2 [Fc]2 | D2- [DA]2 [EG]2 | x6 | x6 | x6 | x6 | x6 | x6 | %12
 x6 | E2- [EG]2 [DF]2 | x6 | x6 | x6 |] %17
V:3
 A,4 C2 | C4 C2 | B,4[K:bass] B,2 | G,2 A,2 B,2 | A,4 A,2 | B,4 C2 | A,4 G,2 | G,4 E,2 | F,4 F,2 | %9
 G,4 B,2 | C4 B,2 | A,4 A,2 | B,4 D2 | C4 A,2 | B,4 G,2 | A,6- | A,2 z2 z2 |] %17
V:4
 F,4 F,2 | E,4 F,2 | D,4 B,,2 | C,4 C,2 | F,4 z2 | G,4 C,2 | D,4 z2 | C,4 C,2 | z2 z2 D,2 | %9
 C,4 B,,2 | A,,4 B,,2 | C,4 D,2 | [G,,G,]4 [G,,G,]2 | C,4 D,2 | B,,4 C,2 | F,6- | F,2 z2 z2 |] %17

